X:2296
T:Bulgarian tune (from Roddy)
S:Roddy Johnston
R:Other
O:Bulgaria
M:12/8
K:D
AB|\
c2B c2B A2 e2 AB|c2d c2B A2 A2 AB|\
c2B c2B A2 e2 AB|c2d c2B A2 A2 de|
f2e f2e d2 a2 de|f2g f2e d2 d2 de|\
f2e f2e d2 a2 de|f2g f2e d2 d2 ||
|:cc |\
c2A c2c B2 A2 AB|c2B c2B A2 A2 ce| \
c2A c2c B2 A2 AB|c2B c2B A2 A2 :|
|:cd |\
ecd e2c d2 e2 cd|ecd e2c A2 A2 cd| \
ecd e2c d2 e2 cd|ecd e2c A2 A2 :|


